symbols/web/phone_in_talk/materialsymbolsoutlined/phone_in_talk_wght600fill1_20px.svg

<svg xmlns="http://www.w3.org/2000/svg" height="20" width="20"><path d="M16 9.521q.021-2.396-1.667-4.094-1.687-1.698-4.083-1.677V1.833q1.583 0 2.979.594 1.396.594 2.448 1.646t1.646 2.458q.594 1.407.594 2.99Zm-3.479 0q.021-.959-.646-1.636-.667-.677-1.625-.656V5.292q1.771-.021 3 1.218 1.229 1.24 1.208 3.011Zm4.062 8.354q-2.812 0-5.427-1.229-2.614-1.229-4.646-3.261-2.031-2.031-3.239-4.645-1.209-2.615-1.209-5.428 0-.52.365-.874.365-.355.885-.355h3.417q.563 0 .938.292t.479.833l.562 2.73q.084.458-.02.812-.105.354-.417.625L6.188 9.333Q6.875 10.542 8 11.677q1.125 1.135 2.438 1.927l2.062-2.042q.333-.333.698-.427.364-.093.844-.01l2.666.604q.542.104.834.448.291.344.291.885v3.542q0 .521-.364.896-.365.375-.886.375Z"/></svg>

<svg xmlns="http://www.w3.org/2000/svg" height="20" width="20"><path d="M16 9.521Q16.021 7.125 14.333 5.427Q12.646 3.729 10.25 3.75V1.833Q11.833 1.833 13.229 2.427Q14.625 3.021 15.677 4.073Q16.729 5.125 17.323 6.531Q17.917 7.938 17.917 9.521ZM12.521 9.521Q12.542 8.562 11.875 7.885Q11.208 7.208 10.25 7.229V5.292Q12.021 5.271 13.25 6.51Q14.479 7.75 14.458 9.521ZM16.583 17.875Q13.771 17.875 11.156 16.646Q8.542 15.417 6.51 13.385Q4.479 11.354 3.271 8.74Q2.062 6.125 2.062 3.312Q2.062 2.792 2.427 2.438Q2.792 2.083 3.312 2.083H6.729Q7.292 2.083 7.667 2.375Q8.042 2.667 8.146 3.208L8.708 5.938Q8.792 6.396 8.688 6.75Q8.583 7.104 8.271 7.375L6.188 9.333Q6.875 10.542 8 11.677Q9.125 12.812 10.438 13.604L12.5 11.562Q12.833 11.229 13.198 11.135Q13.562 11.042 14.042 11.125L16.708 11.729Q17.25 11.833 17.542 12.177Q17.833 12.521 17.833 13.062V16.604Q17.833 17.125 17.469 17.5Q17.104 17.875 16.583 17.875Z"/></svg>
